X:1
T:Thy Boundless Love
T:Thy Boundless Love
T:Charles Hutchinson Gabriel
T:Neal A. McAulay, 1898
T:Public Domain Courtesy of the Cyber Hymnal™
C:Charles Hutchinson Gabriel
Z:Public Domain
Z:Courtesy of the Cyber Hymnal™
%%score ( 1 2 ) ( 3 4 )
L:1/8
Q:1/4=145
M:3/4
K:Ab
V:1 treble 
V:2 treble 
V:3 bass 
V:4 bass 
V:1
 [CE]2 | [Ec]4 [Fd]2 | [Ec]4 [EA]2 | (B2 A2) [DF]2 | [CE]4 [CE]2 | [DF]4 [DA]2 | E4 [CA]2 | %7
w: 1.~Be-|hold the|pre- cious|Lamb * of|God, Who|died up-|on the|
w: 2.~Be-|hold the|heal- ing|streams * of|grace, That|from His|side did|
w: 3.~Be-|hold the|cross He|bore * for|me, Where-|by He|saved my|
 [EB]6- | [EB]4 E2 | [Ec]4 [Fd]2 | [Ec]4 [EA]2 | (B2 A2) [DF]2 | [FA]4 [DF]2 | (E2 A2) [FB]2 | %14
w: tree,|* That|guil- ty|sin- ners,|such * as|I, Might|thro’ * His|
w: flow;|* I|plunged be-|neath the|crim- * son|flood, That|wash- * es|
w: soul;|* His|match- less|grace shall|be * my|theme, While|count- * less|
 [Ec]4 [DB]2 | [CA]6- [CA]4 ||"^Refrain" [CE]2 x2 | c6- | c2 e2 [EA]2 | [EA]4 [EG]2 | [Ed]4 E2 | %21
w: grace be|free. *||||||
w: white as|snow. *|Thy|bound-|* * less|love I’ll|sing, Thy|
w: ag- es|roll. *||||||
 d6- | d2 e2 [EB]2 | [DB]4 [CA]2 | [Ec]4 [Ec]2 | [Ee]4 [Ee]2 | (c2 B2) [_Gc]2 | [Fd]4 [Fd]2 | %28
w: |||||||
w: grace|* * so|full and|free, ’Tis|un- der|Thy * pro-|tect- ing|
w: |||||||
 !fermata![FA]4 [_FB]2 | (c2 d2) [Ec]2 | [Ec]4 [DB]2 | A6- | [CA]4 x2 |] x4 |] %34
w: ||||||
w: wing, My|soul * de-|lights to|be.|||
w: ||||||
V:2
 x2 | x6 | x6 | D4 x2 | x6 | x6 | E4 x2 | x6 | x4 E2 | x6 | x6 | D4 x2 | x6 | E4 x2 | x6 | x10 || %16
 x4 | E4 E2 | E4 x2 | x6 | x4 E2 | G4 G2 | G4 x2 | x6 | x6 | x6 | E4 x2 | x6 | x6 | E4 x2 | x6 | %31
 C4 D2 | x6 |] x4 |] %34
V:3
 [A,,A,]2 | [A,,A,]4 [A,,A,]2 | [A,,A,]4 [C,A,]2 | [D,F,]4 [D,A,]2 | [A,,A,]4 [A,,A,]2 | %5
w: ~|~ ~|~ ~|~ ~|~ ~|
 [D,A,]4 [D,F,]2 | [C,A,]4 [A,,A,]2 | [E,G,]6- | [E,G,]4 [E,G,]2 | [A,,A,]4 [A,,A,]2 | %10
w: ~ ~|~ ~|~|* ~|~ ~|
 [A,,A,]4 [C,A,]2 | [D,F,]4 [D,A,]2 | [D,D]4 [D,A,]2 | [C,A,]4 [D,A,]2 | [E,A,]4 [E,G,]2 | %15
w: ~ ~|~ ~|~ ~|~ ~|~ ~|
 [A,,A,]6- x4 || [A,,A,]4 | [A,,A,]2 x4 | A,4 A,2 | (A,2 C2) [A,C]2 | [E,C]4 [E,B,]2 | %21
w: ~||Thy|bound- less,|bound- * less|love I’ll|
 [E,B,]4 [E,G,]2 | [E,B,]4 [E,B,]2 | [E,B,]4 [E,G,]2 | A,4 A,2 | A,4 A,2 | [A,C]4 [A,C]2 | %27
w: sing, Thy|grace, Thy|grace so|full and|free, ~|~ ~|
 A,4 A,2 | [D,A,]4 [D,A,]2 | !fermata![D,D]4 [D,A,]2 | A,2 B,2 [E,A,]2 | [E,A,]4 [E,G,]2 | %32
w: ~ ~|~ ~|~ ~|~ ~ ~|~ de-|
 [A,,A,]4 [A,,F,]2 |] [A,,E,]4 |] %34
w: lights to|be.|
V:4
 x2 | x6 | x6 | x6 | x6 | x6 | x6 | x6 | x6 | x6 | x6 | x6 | x6 | x6 | x6 | x10 || x4 | x6 | %18
 A,4 A,2 | A,4 x2 | x6 | x6 | x6 | x6 | A,4 A,2 | A,4 A,2 | x6 | A,4 A,2 | x6 | x6 | E,4 x2 | x6 | %32
 x6 |] x4 |] %34

